images/like-button.svg

<svg width="20" height="20" viewBox="0 0 20 20" fill="none" xmlns="http://www.w3.org/2000/svg">
<path fill-rule="evenodd" clip-rule="evenodd" d="M3.03399 4.05857C2.26592 4.75224 1.76687 5.83284 1.99496 7.42928C2.22335 9.02783 3.26497 10.6852 4.80439 12.3478C6.25868 13.9184 8.10965 15.4437 9.99999 16.874C11.8903 15.4437 13.7413 13.9184 15.1956 12.3478C16.7351 10.6852 17.7767 9.02783 18.005 7.4293C18.2331 5.83285 17.734 4.75224 16.9659 4.05856C16.1767 3.34572 15.055 3 14 3C12.132 3 11.0924 4.08479 10.5177 4.68443C10.4581 4.7466 10.4035 4.80356 10.3535 4.85355C10.1583 5.04882 9.84169 5.04882 9.64643 4.85355C9.59644 4.80356 9.54185 4.7466 9.48227 4.68443C8.9076 4.08479 7.868 3 5.99999 3C4.94498 3 3.82328 3.34573 3.03399 4.05857ZM2.36374 3.31643C3.37372 2.40427 4.75205 2 5.99999 2C8.07126 2 9.34542 3.11257 9.99999 3.77862C10.6545 3.11257 11.9287 2 14 2C15.2479 2 16.6262 2.40428 17.6362 3.31644C18.6674 4.24776 19.2669 5.66715 18.995 7.5707C18.7233 9.47217 17.515 11.3148 15.9294 13.0272C14.3355 14.7486 12.3064 16.3952 10.3 17.9C10.1222 18.0333 9.87776 18.0333 9.69999 17.9C7.69356 16.3952 5.66446 14.7485 4.07063 13.0272C2.48506 11.3148 1.27668 9.47217 1.00501 7.57072C0.733043 5.66716 1.33253 4.24776 2.36374 3.31643Z" fill="black"/>
</svg>

<svg width="20" height="20" fill="none" xmlns="http://www.w3.org/2000/svg"><path fill-rule="evenodd" clip-rule="evenodd" d="M3.034 4.059c-.768.693-1.267 1.774-1.039 3.37.228 1.599 1.27 3.256 2.81 4.919 1.454 1.57 3.305 3.096 5.195 4.526 1.89-1.43 3.741-2.956 5.196-4.526 1.54-1.663 2.58-3.32 2.809-4.919.228-1.596-.271-2.677-1.04-3.37C16.178 3.346 15.056 3 14 3c-1.868 0-2.908 1.085-3.482 1.684-.06.063-.115.12-.165.17a.5.5 0 0 1-.707 0 11.53 11.53 0 0 1-.164-.17C8.908 4.084 7.868 3 6 3c-1.055 0-2.177.346-2.966 1.059zm-.67-.743C3.374 2.404 4.752 2 6 2c2.071 0 3.345 1.113 4 1.779C10.655 3.113 11.929 2 14 2c1.248 0 2.626.404 3.636 1.316 1.031.932 1.63 2.351 1.359 4.255-.272 1.901-1.48 3.744-3.066 5.456-1.594 1.722-3.623 3.368-5.629 4.873a.5.5 0 0 1-.6 0c-2.006-1.505-4.036-3.151-5.63-4.873-1.585-1.712-2.793-3.555-3.065-5.456-.272-1.904.328-3.323 1.359-4.255z" fill="#000"/></svg>
